icons/paintbrush-24.svg

<svg width="24" height="24" viewBox="0 0 24 24">
  <path
    d="M19.6416 6.65324C18.332 8.46534 16.391 10.5137 14.697 12.2279C14.6665 12.2588 14.6361 12.2894 14.6057 12.3197L11.9169 9.63093C11.949 9.59812 11.9814 9.56521 12.014 9.53219C13.704 7.82189 15.7458 5.8759 17.5575 4.57006C18.4694 3.91279 19.2726 3.45517 19.9108 3.25229C20.5627 3.04503 20.826 3.16096 20.9498 3.28493C21.0633 3.39832 21.1811 3.65175 20.9688 4.3042C20.7618 4.93994 20.3006 5.7413 19.6416 6.65324ZM10.9008 10.7361L13.506 13.3413C12.6267 14.0954 11.822 14.6346 11.128 14.9965C10.9142 14.6104 10.6435 14.2474 10.3158 13.9197C9.98731 13.5912 9.62322 13.3199 9.23598 13.1058C9.59609 12.4158 10.1391 11.6237 10.9008 10.7361ZM7.81473 12.5919C6.29488 12.3004 4.66204 12.743 3.48532 13.9197C2.95993 14.4451 2.60442 15.2223 2.35458 15.9988C2.09859 16.7944 1.92539 17.6808 1.81383 18.5058C1.70202 19.3327 1.64937 20.1188 1.64123 20.722C1.63719 21.0219 1.64394 21.2895 1.66255 21.5005C1.67168 21.6039 1.68516 21.7119 1.70691 21.8106C1.71768 21.8594 1.73403 21.9226 1.76001 21.9892C1.78036 22.0413 1.83351 22.1682 1.95041 22.2851C2.06722 22.4017 2.1945 22.4553 2.24662 22.4756C2.31312 22.5015 2.37626 22.5179 2.42513 22.5286C2.52379 22.5504 2.63174 22.5639 2.73523 22.573C2.94622 22.5916 3.21385 22.5984 3.51374 22.5943C4.11698 22.5862 4.90307 22.5336 5.72998 22.4218C6.55495 22.3102 7.44128 22.137 8.23687 21.8811C9.01333 21.6312 9.79044 21.2757 10.3158 20.7503C11.4935 19.5727 11.9358 17.9382 11.643 16.4173C12.8519 15.8179 14.265 14.7992 15.764 13.2822C17.4575 11.5684 19.473 9.44741 20.8573 7.53184C21.5453 6.57994 22.1154 5.62787 22.3951 4.76849C22.6694 3.92581 22.7286 2.94171 22.0106 2.22443C21.2919 1.50529 20.3078 1.5521 19.4563 1.82278C18.5909 2.09792 17.6345 2.66553 16.6804 3.35321C14.7602 4.73727 12.6444 6.76012 10.947 8.47786C9.44734 9.99551 8.41637 11.3742 7.81473 12.5919ZM9.25516 14.9804C10.5556 16.2808 10.5556 18.3892 9.25516 19.6897C8.98391 19.9609 8.48088 20.2268 7.77743 20.4531C7.09311 20.6733 6.29976 20.8311 5.529 20.9353C4.76016 21.0392 4.03445 21.0872 3.49354 21.0945C3.36225 21.0962 3.24485 21.0956 3.14256 21.093C3.14 20.9908 3.13933 20.8734 3.1411 20.7422C3.14839 20.2014 3.19634 19.4756 3.3003 18.7068C3.40453 17.936 3.5623 17.1426 3.78249 16.4582C4.00884 15.7547 4.27474 15.2516 4.54599 14.9804C5.8464 13.68 7.95476 13.68 9.25516 14.9804Z" />
</svg>

<svg xmlns="http://www.w3.org/2000/svg" width="24" height="24" viewBox="0 0 24 24"><path d="M19.642 6.653c-1.31 1.812-3.251 3.86-4.945 5.575l-.091.092-2.69-2.69.098-.098c1.69-1.71 3.732-3.656 5.544-4.962.911-.657 1.715-1.115 2.353-1.318.652-.207.915-.091 1.039.033.113.113.231.367.019 1.02-.207.635-.668 1.436-1.327 2.348ZM10.9 10.736l2.605 2.605c-.88.754-1.684 1.294-2.378 1.655a4.832 4.832 0 0 0-1.892-1.89c.36-.69.903-1.482 1.665-2.37Zm-3.086 1.856a4.825 4.825 0 0 0-4.33 1.328c-.525.525-.88 1.302-1.13 2.079-.256.795-.43 1.682-.541 2.507a19.055 19.055 0 0 0-.173 2.216c-.004.3.003.567.022.778.009.104.022.212.044.31.01.05.027.113.053.18.02.051.074.178.19.295.117.117.245.17.297.19.066.026.13.043.178.054.099.021.207.035.31.044.211.019.479.025.779.021.603-.008 1.39-.06 2.216-.172.825-.112 1.711-.285 2.507-.54.776-.25 1.553-.606 2.079-1.132a4.825 4.825 0 0 0 1.327-4.333c1.209-.6 2.622-1.618 4.121-3.135 1.694-1.714 3.709-3.835 5.093-5.75.688-.952 1.258-1.904 1.538-2.764.274-.842.334-1.826-.384-2.544-.72-.719-1.703-.672-2.555-.401-.865.275-1.822.843-2.776 1.53-1.92 1.384-4.036 3.407-5.733 5.125-1.5 1.518-2.53 2.896-3.132 4.114Zm1.44 2.388a3.33 3.33 0 0 1 0 4.71c-.271.27-.774.537-1.478.763-.684.22-1.477.378-2.248.482-.769.104-1.495.152-2.035.16a9.247 9.247 0 0 1-.351-.002 9.182 9.182 0 0 1-.002-.35c.007-.542.055-1.267.16-2.036.104-.771.261-1.564.481-2.249.227-.703.493-1.206.764-1.478a3.33 3.33 0 0 1 4.71 0Z"/></svg>
